X: 1268
T: An Droighnean Donn
R: waltz
M: 3/4
K: Dmajor
GAG|:A2 F ABc|d2 AA BA/G/|F2 EF E>D|D3:|
|:GAG|A2 F ABc|(d2 d)d ed|c2 Ac BA|A3 GAG|
A2 FA Bc|d2 AA BA/G/|F2 EF E>D|D3:|

